packages/dnb-ui-lib/assets/icons/document_warning.svg

<svg width="16" height="16" viewBox="0 0 16 16" fill="none" xmlns="http://www.w3.org/2000/svg">
<path d="M10.59 3.5L8.61761 1.32777C8.42808 1.11903 8.15923 1 7.87727 1H2C1.44772 1 1 1.44772 1 2V14C1 14.5523 1.44772 15 2 15H3M10.4998 11.7272V9.72737M14.8593 13.1324C14.9608 13.3291 15.0088 13.5478 14.9987 13.7676C14.9885 13.9873 14.9206 14.2009 14.8013 14.3881C14.6821 14.5752 14.5154 14.7297 14.3173 14.8368C14.1191 14.9439 13.896 15.0001 13.6691 15H7.33058C7.1037 15.0002 6.88056 14.944 6.68238 14.8369C6.4842 14.7298 6.31758 14.5753 6.19836 14.3881C6.07915 14.2009 6.01131 13.9873 6.0013 13.7675C5.99128 13.5477 6.03943 13.3291 6.14116 13.1324L9.30969 7.7136C9.42014 7.49919 9.59 7.31885 9.80022 7.19281C10.0104 7.06676 10.2527 7 10.4999 7C10.747 7 10.9893 7.06676 11.1995 7.19281C11.4097 7.31885 11.5796 7.49919 11.69 7.7136L14.8593 13.1324Z" stroke="black" stroke-width="1.5" stroke-linecap="round" stroke-linejoin="round"/>
<path d="M10.5117 12.8594C10.4074 12.8594 10.3055 12.8903 10.2187 12.9482C10.132 13.0062 10.0644 13.0886 10.0245 13.1849C9.9846 13.2813 9.97416 13.3873 9.99451 13.4896C10.0149 13.5919 10.0651 13.6859 10.1388 13.7596C10.2126 13.8334 10.3065 13.8836 10.4088 13.9039C10.5111 13.9243 10.6172 13.9138 10.7135 13.8739C10.8099 13.834 10.8922 13.7664 10.9502 13.6797C11.0081 13.593 11.0391 13.491 11.0391 13.3867C11.0391 13.2469 10.9835 13.1127 10.8846 13.0138C10.7857 12.9149 10.6516 12.8594 10.5117 12.8594Z" fill="black"/>
</svg>

<svg width="16" height="16" viewBox="0 0 16 16" fill="none" xmlns="http://www.w3.org/2000/svg"><path d="M10.59 3.5L8.618 1.328A1 1 0 007.878 1H2a1 1 0 00-1 1v12a1 1 0 001 1h1m7.5-3.273v-2m4.36 3.405a1.258 1.258 0 01-.059 1.256c-.119.187-.286.342-.484.449a1.363 1.363 0 01-.648.163H7.331c-.227 0-.45-.056-.649-.163a1.313 1.313 0 01-.484-.449 1.262 1.262 0 01-.057-1.256L9.31 7.714c.11-.215.28-.395.49-.521a1.361 1.361 0 011.4 0c.21.126.38.306.49.52l3.17 5.42z" stroke="#000" stroke-width="1.5" stroke-linecap="round" stroke-linejoin="round"/><path d="M10.512 12.86a.528.528 0 100 1.055.528.528 0 000-1.056z" fill="#000"/></svg>
